X:14
T:Off She Goes. WHG.014
R:jig
S:W.H.Giles MS,Bampton,Oxfordshire,1839p15
O:England
H:donated by Mrs W.R.Kettlewell to VWML,Apr 1927.
A:Bampton, Oxfordshire
Z:PJHeadford – VMP 2009
M:6/8
L:1/8
Q:3/8=120
K:D
|:F2A G2B|ABc d3|F2A G2B|”^as writ”ABc d3|\
f2d {a}g2f|edc d3:|
|:faf def|eae cde|faf def|ecA A3|
faf def|eae cde|faf gec|ddd d3:|

